src/icons/outline/status/alert.svg

<svg width="24" height="24" viewBox="0 0 24 24" fill="none" xmlns="http://www.w3.org/2000/svg">
<g clip-path="url(#clip0_4787_665)">
<path d="M12 15.2363C12.0247 15.2363 12.0501 15.2377 12.0742 15.2402C12.6354 15.2781 13.0759 15.7404 13.0762 16.3115C13.0762 16.8829 12.6356 17.3449 12.0742 17.3828C12.05 17.3844 12.0247 17.3877 12 17.3877L11.9258 17.3838L11.9248 17.3828C11.364 17.3443 10.9248 16.8825 10.9248 16.3115C10.9251 15.7408 11.3642 15.2787 11.9248 15.2402C11.9494 15.2377 11.9748 15.2363 12 15.2363Z" fill="#3C3B44"/>
<path d="M12 4.96973C12.4008 4.96976 12.7334 5.30228 12.7334 5.70312V13.2324C12.7332 13.6331 12.4007 13.9658 12 13.9658C11.5992 13.9658 11.2668 13.6332 11.2666 13.2324V5.70312C11.2666 5.30226 11.5991 4.96973 12 4.96973Z" fill="#3C3B44"/>
<path fill-rule="evenodd" clip-rule="evenodd" d="M16.4492 1C16.6445 1.00009 16.8398 1.07823 16.9766 1.22461L22.7949 7.23828C22.9317 7.37515 23 7.56136 23 7.74707V16.2529C23 16.4386 22.9219 16.6248 22.7949 16.7617L16.9766 22.7754C16.8398 22.9218 16.6445 22.9999 16.4492 23H7.55078C7.35548 22.9999 7.16024 22.9218 7.02344 22.7754L1.20508 16.7617C1.06829 16.6248 1 16.4386 1 16.2529V7.74707C1 7.56136 1.07805 7.37515 1.20508 7.23828L7.02344 1.22461C7.16024 1.07823 7.35548 1.00009 7.55078 1H16.4492ZM2.45703 8.0498V15.96L7.85449 21.5332H16.1357L21.5332 15.96V8.0498L16.1357 2.47656H7.85449L2.45703 8.0498Z" fill="#3C3B44"/>
</g>
<defs>
<clipPath id="clip0_4787_665">
<rect width="24" height="24" fill="white"/>
</clipPath>
</defs>
</svg>

<svg xmlns="http://www.w3.org/2000/svg" width="24" height="24" fill="none" viewBox="0 0 24 24"><g fill="currentColor" clip-path="url(#a)"><path d="m12 15.236.074.004a1.07 1.07 0 0 1 1.001 1.072 1.07 1.07 0 0 1-1 1.07l-.075.006-.074-.004-.001-.001c-.561-.038-1-.5-1-1.07 0-.572.439-1.034 1-1.073q.037-.003.075-.004M12 4.97c.4 0 .733.332.733.733v7.53a.74.74 0 0 1-.733.733.74.74 0 0 1-.733-.734V5.703c0-.4.332-.733.733-.733"/><path fill-rule="evenodd" d="M16.45 1c.195 0 .39.078.527.225l5.818 6.013a.72.72 0 0 1 .205.51v8.505a.76.76 0 0 1-.205.509l-5.818 6.013a.73.73 0 0 1-.528.225H7.551a.73.73 0 0 1-.528-.225l-5.818-6.013a.72.72 0 0 1-.205-.51V7.748c0-.186.078-.372.205-.509l5.818-6.013A.73.73 0 0 1 7.551 1zM2.456 8.05v7.91l5.397 5.573h8.282l5.397-5.573V8.05l-5.397-5.573H7.854z" clip-rule="evenodd"/></g><defs><clipPath id="a"><path fill="currentColor" d="M0 0h24v24H0z"/></clipPath></defs></svg>
